X:1
T:[ID 1-33b]
T:[ID 1-33b]
T:Bezeichnung standardisiert: Menuett [ohne Titel, m\"oglicherweise Trio zu 1-33a]
T:Urheber unbekannt Datum in der hier transkribierten schriftlichen Quelle: vermutlich vor 1767
C:Urheber unbekannt
C:Datum in der hier transkribierten schriftlichen Quelle: vermutlich vor 1767
L:1/8
M:3/4
K:G
V:1 treble 
V:1
 G2 BGdB | a2 g2 g2 | fa d2 c2 | BGAF G2 | G2 BGdB | gbeg^ce | dA F2 E2 | D6 :: D2 FDAF | %9
 c2 AB c2 | ABcde"^g*"A | F2 EF D2 | G2 BGdB | gbdgBd | c2 B2 A2 | G6 :| %16

